source/img/burger.svg

<svg width="80" height="80" viewBox="0 0 80 80" fill="none" xmlns="http://www.w3.org/2000/svg">
<path fill-rule="evenodd" clip-rule="evenodd" d="M72.5314 36.3747L72.5314 36.3739C72.5547 35.5459 72.5862 34.4289 72.5144 34.1408C71.8163 18.5181 57.4541 6 39.8005 6C22.147 6 7.68504 18.5181 6.98688 34.1408V37.1451H72.5144C72.5144 36.9766 72.5223 36.6976 72.5314 36.3747ZM39.8005 9.00435C55.7585 9.00435 68.9239 20.2206 69.5223 34.1408H9.979C10.6772 20.2206 23.8425 9.00435 39.8005 9.00435ZM23.2441 48.8621L17.8583 44.8563L12.3727 48.8621L5.9895 44.1553L7.78478 41.7518L12.3727 45.0566L17.8583 41.0508L23.2441 45.0566L28.7297 41.0508L34.2152 45.0566L39.7008 41.0508L45.0866 45.0566L50.5722 41.0508L56.0577 45.0566L61.5433 41.0508L67.0289 45.0566L71.6168 41.7518L73.3123 44.1553L67.0289 48.8621L61.5433 44.8563L56.0577 48.8621L50.5722 44.8563L45.0866 48.8621L39.7008 44.8563L34.2152 48.8621L28.7297 44.8563L23.2441 48.8621ZM6.28871 52.0667H73.7113C76.105 52.0667 78 54.0696 78 56.2727V59.7778C78 62.1813 76.0053 64.0841 73.7113 64.0841H72.7139V65.0855C72.7139 70.4934 68.3255 74.9999 62.8399 74.9999H17.1601C11.7743 74.9999 7.28609 70.5935 7.28609 65.0855V64.0841H6.28871C3.89501 64.0841 2 62.1813 2 59.878V56.3729C2 54.0696 3.89501 52.0667 6.28871 52.0667ZM62.9396 71.9955C66.7297 71.9955 69.8215 68.891 69.8215 65.0855V64.0841H10.1785V65.0855C10.1785 68.891 13.2703 71.9955 17.0604 71.9955H62.9396ZM73.7113 61.0797C74.4095 61.0797 75.0079 60.4788 75.0079 59.7778H75.1076V56.3729C75.1076 55.6719 74.5092 55.071 73.811 55.071H6.28871C5.59055 55.071 4.99213 55.6719 4.99213 56.2727V59.7778C4.99213 60.4788 5.59055 61.0797 6.28871 61.0797H73.7113ZM41.895 21.6228C41.895 22.7289 41.0019 23.6257 39.9003 23.6257C38.7986 23.6257 37.9055 22.7289 37.9055 21.6228C37.9055 20.5166 38.7986 19.6199 39.9003 19.6199C41.0019 19.6199 41.895 20.5166 41.895 21.6228ZM31.9213 18.6184C33.0229 18.6184 33.916 17.7216 33.916 16.6155C33.916 15.5093 33.0229 14.6125 31.9213 14.6125C30.8196 14.6125 29.9265 15.5093 29.9265 16.6155C29.9265 17.7216 30.8196 18.6184 31.9213 18.6184ZM49.874 16.6155C49.874 17.7216 48.9809 18.6184 47.8793 18.6184C46.7776 18.6184 45.8845 17.7216 45.8845 16.6155C45.8845 15.5093 46.7776 14.6125 47.8793 14.6125C48.9809 14.6125 49.874 15.5093 49.874 16.6155Z" fill="#81B3D2"/>
</svg>

<svg width="80" height="80" fill="none" xmlns="http://www.w3.org/2000/svg"><path fill-rule="evenodd" clip-rule="evenodd" d="M72.53 36.37c.02-.82.06-1.94-.02-2.23C71.81 18.52 57.45 6 39.8 6S7.69 18.52 6.99 34.14v3H72.5l.02-.77ZM39.8 9c15.96 0 29.12 11.22 29.72 25.14H9.98C10.68 20.22 23.84 9 39.8 9ZM23.24 48.86l-5.38-4-5.49 4L6 44.16l1.8-2.4 4.58 3.3 5.49-4 5.38 4 5.49-4 5.49 4 5.48-4 5.39 4 5.48-4 5.49 4 5.48-4 5.49 4 4.59-3.3 1.7 2.4-6.3 4.7-5.48-4-5.48 4-5.49-4-5.48 4-5.39-4-5.48 4-5.49-4-5.49 4ZM6.3 52.06H73.7c2.4 0 4.29 2.01 4.29 4.21v3.5c0 2.41-2 4.31-4.29 4.31h-1v1c0 5.41-4.38 9.92-9.87 9.92H17.16a9.92 9.92 0 0 1-9.87-9.91v-1h-1c-2.4 0-4.29-1.9-4.29-4.21v-3.5c0-2.31 1.9-4.31 4.29-4.31ZM62.94 72c3.79 0 6.88-3.1 6.88-6.91v-1H10.18v1c0 3.8 3.09 6.9 6.88 6.9h45.88Zm10.77-10.92c.7 0 1.3-.6 1.3-1.3h.1v-3.4c0-.7-.6-1.3-1.3-1.3H6.3c-.7 0-1.3.6-1.3 1.2v3.5c0 .7.6 1.3 1.3 1.3H73.7ZM41.9 21.62a2 2 0 1 1-4 .01 2 2 0 0 1 4 0Zm-9.98-3a2 2 0 1 0 0-4 2 2 0 0 0 0 4Zm17.95-2a2 2 0 1 1-4 0 2 2 0 0 1 4 0Z" fill="#81B3D2"/></svg>
